packages/ui-icons/svg/Line/windows.svg

<svg viewBox="0 0 1920 1920" version="1.1" xmlns="http://www.w3.org/2000/svg">
    <path d="M677.647059,1642.60518 L112.941176,1564.33694 L112.941176,1129.40047 L677.647059,1129.40047 L677.647059,1642.60518 Z M734.117647,1016.45929 L56.4705882,1016.45929 C25.2988235,1016.45929 0,1041.75812 0,1072.92988 L0,1613.46635 C0,1641.70165 20.7811765,1665.53224 48.7905882,1669.37224 L726.437647,1763.33929 C728.922353,1763.79106 731.632941,1763.904 734.117647,1763.904 C747.670588,1763.904 760.771765,1759.04753 771.162353,1750.01224 C783.472941,1739.28282 790.588235,1723.80988 790.588235,1707.43341 L790.588235,1072.92988 C790.588235,1041.75812 765.289412,1016.45929 734.117647,1016.45929 L734.117647,1016.45929 Z M771.162353,169.976471 C758.851765,159.247059 742.588235,154.164706 726.437647,156.649412 L48.7905882,250.616471 C20.7811765,254.456471 0,278.287059 0,306.522353 L0,847.058824 C0,878.230588 25.2988235,903.529412 56.4705882,903.529412 L734.117647,903.529412 C765.289412,903.529412 790.588235,878.230588 790.588235,847.058824 L790.588235,212.555294 C790.588235,196.178824 783.472941,180.705882 771.162353,169.976471 L771.162353,169.976471 Z M677.647059,790.588235 L112.941176,790.588235 L112.941176,355.651765 L677.647059,277.383529 L677.647059,790.588235 Z M1900.68706,14.0047059 C1888.48941,3.16235294 1871.88706,-1.69411765 1855.96235,0.451764706 L952.432941,123.783529 C924.423529,127.623529 903.529412,151.567059 903.529412,179.802353 L903.529412,847.058824 C903.529412,878.230588 928.828235,903.529412 960,903.529412 L1863.52941,903.529412 C1894.70118,903.529412 1920,878.230588 1920,847.058824 L1920,56.4705882 C1920,40.0941176 1912.88471,24.6211765 1900.68706,14.0047059 L1900.68706,14.0047059 Z M1807.05882,790.588235 L1016.47059,790.588235 L1016.47059,229.044706 L1807.05882,121.185882 L1807.05882,790.588235 Z M1863.52941,1016.49318 L960,1016.49318 C928.828235,1016.49318 903.529412,1041.67906 903.529412,1072.96376 L903.529412,1740.22024 C903.529412,1768.45553 924.423529,1792.28612 952.432941,1796.23906 L1855.96235,1919.45788 C1858.44706,1919.79671 1861.04471,1920.02259 1863.52941,1920.02259 C1877.08235,1920.02259 1890.29647,1915.05318 1900.68706,1906.01788 C1912.88471,1895.28847 1920,1879.81553 1920,1863.552 L1920,1072.96376 C1920,1041.67906 1894.70118,1016.49318 1863.52941,1016.49318 L1863.52941,1016.49318 Z M1807.05882,1798.83671 L1016.47059,1690.86494 L1016.47059,1129.43435 L1807.05882,1129.43435 L1807.05882,1798.83671 Z" stroke="none" stroke-width="1" fill-rule="evenodd"/>
</svg>

<svg viewBox="0 0 1920 1920" xmlns="http://www.w3.org/2000/svg">
    <path d="m677.647 1642.605-564.706-78.268V1129.4h564.706v513.205Zm56.47-626.146H56.472c-31.172 0-56.471 25.3-56.471 56.47v540.537c0 28.236 20.781 52.066 48.79 55.906l677.648 93.967c2.484.452 5.195.565 7.68.565 13.553 0 26.654-4.856 37.044-13.892 12.31-10.73 19.426-26.202 19.426-42.579V1072.93c0-31.172-25.299-56.47-56.47-56.47Zm37.045-846.483c-12.31-10.729-28.574-15.811-44.724-13.327L48.79 250.616C20.78 254.456 0 278.287 0 306.522V847.06c0 31.172 25.299 56.47 56.47 56.47h677.648c31.171 0 56.47-25.298 56.47-56.47V212.555c0-16.376-7.115-31.85-19.426-42.579Zm-93.515 620.612H112.941V355.652l564.706-78.268v513.204Zm1223.04-776.583c-12.198-10.843-28.8-15.7-44.725-13.553l-903.53 123.332c-28.008 3.84-48.903 27.783-48.903 56.018V847.06c0 31.172 25.3 56.47 56.471 56.47h903.53c31.171 0 56.47-25.298 56.47-56.47V56.47c0-16.377-7.115-31.85-19.313-42.466Zm-93.628 776.583H1016.47V229.045l790.588-107.86v669.403Zm56.47 225.905H960c-31.172 0-56.47 25.186-56.47 56.47v667.257c0 28.236 20.894 52.066 48.903 56.02l903.53 123.218c2.484.339 5.082.565 7.566.565 13.553 0 26.767-4.97 37.158-14.005 12.198-10.73 19.313-26.202 19.313-42.466v-790.588c0-31.285-25.299-56.47-56.47-56.47Zm-56.47 782.344-790.588-107.972v-561.43h790.588v669.402Z" fill-rule="evenodd"/>
</svg>
